app/images/icons/arrowBtn.svg

<svg xmlns="http://www.w3.org/2000/svg" width="22" height="9"><path fill-rule="evenodd" fill="#FFF" d="M.296 5.472H.288h16.956l-.1 2.857a.284.284 0 00-.084.205c0 .077.029.151.084.205l.172.172a.285.285 0 00.407.002l4.193-4.211a.292.292 0 000-.409L17.723.08a.29.29 0 00-.407 0l-.172.173a.287.287 0 000 .405l.113 2.865H.292A.297.297 0 000 3.818v1.37c0 .159.137.284.296.284z"/></svg>

<svg 
 xmlns="http://www.w3.org/2000/svg"
 xmlns:xlink="http://www.w3.org/1999/xlink"
 width="22px" height="9px">
<path fill-rule="evenodd"  fill="rgb(255, 255, 255)"
 d="M0.296,5.472 L0.288,5.472 L17.244,5.472 L17.144,8.329 C17.089,8.383 17.060,8.456 17.060,8.534 C17.060,8.611 17.089,8.685 17.144,8.739 L17.316,8.911 C17.370,8.967 17.442,8.997 17.520,8.997 C17.597,8.997 17.669,8.967 17.723,8.913 L21.916,4.702 C21.970,4.647 22.000,4.574 22.000,4.496 C22.000,4.419 21.970,4.346 21.916,4.293 L17.723,0.080 C17.669,0.027 17.597,-0.004 17.520,-0.004 C17.442,-0.004 17.370,0.027 17.316,0.080 L17.144,0.253 C17.089,0.309 17.060,0.380 17.060,0.457 C17.060,0.534 17.089,0.603 17.144,0.658 L17.257,3.523 L0.292,3.523 C0.133,3.523 -0.000,3.658 -0.000,3.818 L-0.000,5.188 C-0.000,5.347 0.137,5.472 0.296,5.472 Z"/>
</svg>
